X: 0
T: Långdans från Sollerön
F: https://www.youtube.com/watch?v=TJ82aOO4S-I
M:3/4
K:Am fgp=1
"E:7"E2 ^G2 A2 | B3d c2 | A2 cB A^G | A3^G E2 | E2 ^G2 A2 | B3d c2 | A2 cB A^G |
A6 | E2 ^G2 A2 | B3d c2 | A2 cB A^G | A3^G E2 | E2 ^G2 A2 | B3d c2 |
A2 cB A^G | A6 | e2 d2 B2 | d3B c2 | c2 e2 d2 | B2 dB c2 | A2 cB A^G |
A6 | e2 d2 B2 | d3B c2 | c2 e2 d2 | B2 dB c2 | A2 cB A^G | A6 |
